img/material-image.svg

<svg xmlns="http://www.w3.org/2000/svg" width="3.104cm" height="3.528cm">
  <path fill="#F39D77" fill-rule="evenodd" d="M76.267 8.789C76.267 3.943 72.318 0 67.466 0H8.8C3.947 0 0 3.943 0 8.789v17.578c0 4.846 3.947 8.789 8.8 8.789h58.666c4.852 0 8.801-3.943 8.801-8.789v-2.93H79.2a2.935 2.935 0 0 1 2.933 2.93v11.719a2.935 2.935 0 0 1-2.933 2.929H43.999c-4.851 0-8.8 3.944-8.8 8.79v8.789h-2.933a2.93 2.93 0 0 0-2.933 2.929v11.56L26.4 84.99C24.492 92.61 30.256 100 38.133 100c7.88 0 13.638-7.398 11.736-14.999l-2.936-11.918v-11.56a2.93 2.93 0 0 0-2.934-2.929h-2.933v-8.789a2.935 2.935 0 0 1 2.933-2.93H79.2c4.852 0 8.799-3.943 8.799-8.789V26.367c0-4.846-3.947-8.789-8.799-8.789h-2.933V8.789zM41.066 64.453v6.055h-5.867v-6.055h5.867zM38.133 94.14c-4.041 0-7.028-3.787-6.04-7.739l2.472-10.034H41.7l2.474 10.045c.983 3.924-1.986 7.728-6.041 7.728zM8.8 5.859h58.666a2.936 2.936 0 0 1 2.934 2.93v2.93h-8.8c-2.851 0-6.497 1.066-10.718 2.301-5.701 1.667-12.164 3.558-18.616 3.558-6.289 0-10.724-1.835-14.636-3.453-2.992-1.238-5.817-2.406-8.83-2.406H5.866v-2.93A2.936 2.936 0 0 1 8.8 5.859zm61.6 20.508a2.936 2.936 0 0 1-2.934 2.93H8.8a2.936 2.936 0 0 1-2.934-2.93v-8.789H8.8c1.846 0 3.938.865 6.584 1.96 4.2 1.737 9.425 3.899 16.882 3.899 7.295 0 14.486-2.104 20.265-3.794 3.63-1.062 7.06-2.065 9.069-2.065h8.8v8.789z"/>
</svg>

<svg
 xmlns="http://www.w3.org/2000/svg"
 xmlns:xlink="http://www.w3.org/1999/xlink"
 width="3.104cm" height="3.528cm">
<path fill-rule="evenodd"  fill="rgb(243, 157, 119)"
 d="M76.267,8.789 C76.267,3.943 72.318,-0.000 67.466,-0.000 L8.800,-0.000 C3.947,-0.000 -0.000,3.943 -0.000,8.789 L-0.000,26.367 C-0.000,31.213 3.947,35.156 8.800,35.156 L67.466,35.156 C72.318,35.156 76.267,31.213 76.267,26.367 L76.267,23.437 L79.200,23.437 C80.817,23.437 82.133,24.752 82.133,26.367 L82.133,38.086 C82.133,39.701 80.817,41.015 79.200,41.015 L43.999,41.015 C39.148,41.015 35.199,44.959 35.199,49.805 L35.199,58.594 L32.266,58.594 C30.646,58.594 29.333,59.905 29.333,61.523 L29.333,73.083 L26.400,84.990 C24.492,92.610 30.256,100.000 38.133,100.000 C46.013,100.000 51.771,92.602 49.869,85.001 L46.933,73.083 L46.933,61.523 C46.933,59.905 45.620,58.594 43.999,58.594 L41.066,58.594 L41.066,49.805 C41.066,48.189 42.383,46.875 43.999,46.875 L79.200,46.875 C84.052,46.875 87.999,42.932 87.999,38.086 L87.999,26.367 C87.999,21.521 84.052,17.578 79.200,17.578 L76.267,17.578 L76.267,8.789 ZM41.066,64.453 L41.066,70.508 L35.199,70.508 L35.199,64.453 L41.066,64.453 ZM38.133,94.140 C34.092,94.140 31.105,90.353 32.093,86.401 L34.565,76.367 L41.700,76.367 L44.174,86.412 C45.157,90.336 42.188,94.140 38.133,94.140 L38.133,94.140 ZM8.800,5.859 L67.466,5.859 C69.083,5.859 70.400,7.174 70.400,8.789 L70.400,11.719 L61.600,11.719 C58.749,11.719 55.103,12.785 50.882,14.020 C45.181,15.687 38.718,17.578 32.266,17.578 C25.977,17.578 21.542,15.743 17.630,14.125 C14.638,12.887 11.813,11.719 8.800,11.719 L5.866,11.719 L5.866,8.789 C5.866,7.174 7.182,5.859 8.800,5.859 L8.800,5.859 ZM70.400,26.367 C70.400,27.982 69.083,29.297 67.466,29.297 L8.800,29.297 C7.182,29.297 5.866,27.982 5.866,26.367 L5.866,17.578 L8.800,17.578 C10.646,17.578 12.738,18.443 15.384,19.538 C19.584,21.275 24.809,23.437 32.266,23.437 C39.561,23.437 46.752,21.333 52.531,19.643 C56.161,18.581 59.591,17.578 61.600,17.578 L70.400,17.578 L70.400,26.367 Z"/>
</svg>
